X:1
T:Capanna, 76.76.77
T:Capanna, 76.76.77
T:Laude Spirituali, 1674
T:Public Domain Courtesy of the Cyber Hymnal™
C:Laude Spirituali, 1674
Z:Public Domain
Z:Courtesy of the Cyber Hymnal™
%%score ( 1 2 ) ( 3 4 )
L:1/8
Q:1/4=110
M:6/8
K:D
V:1 treble 
V:2 treble 
V:3 bass 
V:4 bass 
V:1
 [B,G] | [B,G]2 [B,G] [DA]2 [DA] | [DB]3 [B,E]2 [B,E] | [EA]2 [EG] [DF]2 [B,E] | [DF]3 z2 [DG] | %5
 [EG]2 [B,G] [DA]2 [DA] | [DB]3 [B,E]2 E | [EA]2 [EG] F2 [B,E] | [DF]3 z2 | [DB] | %10
 B2 [EA] [EG]2 G | A2 B2 [EA] x | _c2 [DB] A2 [EG] | [DF]3 [B,E]2 |] %14
V:2
 x | x6 | x6 | x6 | x6 | x6 | x5 E | x3 (D>C) x | x5 | x | (G>F) x3/2 G x3/2 | (G>EF) (GF) x | %12
 (F>E) (=C>D) x2 | x5 |] %14
V:3
 G, | [E,G,]2 [E,G,] [D,F,]2 [D,F,] | [B,,F,]3 [E,G,]2 [E,G,] | [A,,=C]2 [=C,C] [D,A,]2 [E,G,] | %4
 [D,A,]3 z2 [G,B,] | (B,>A,)[E,G,] (G,>E,)[D,F,] | F,3 (G,>A,)[E,G,] | =C2 [=C,C] [D,A,]2 [E,G,] | %8
 [D,A,]3 z2 | G, | [G,D]2 [A,=C] (B,>A,)[E,B,] | [D,D]3 [G,D]2 [A,=C] | %12
 [G,B,]2 [G,B,] (=C>B,)[=C,C] | (A,2 F,) [E,^G,]2 |] %14
V:4
 G, | x6 | x6 | x6 | x6 | E,2 E,2 x2 | (B,,>C,D,) E,2 x | (A,,>B,,) x4 | x5 | G, | x3 E,2 x | x6 | %12
 x3 A,2 x | D,3 x2 |] %14

